icons/label-arrow-down.svg

<svg xmlns="http://www.w3.org/2000/svg" width="24" height="24" viewBox="0 0 24 24">
  <path d="M15.0924635,4 C15.6691887,4 16.2178408,4.24896086 16.5976169,4.68299078 L21.8476169,10.6829908 C22.5074124,11.4370428 22.5074124,12.5629572 21.8476169,13.3170092 L16.5976169,19.3170092 C16.2178408,19.7510391 15.6691887,20 15.0924635,20 L4,20 C2.8954305,20 2,19.1045695 2,18 L2,6 C2,4.8954305 2.8954305,4 4,4 L15.0924635,4 Z M10,8 C9.48716416,8 9.06449284,8.38604019 9.00672773,8.88337887 L9,9 L9,12.585 L7.70710678,11.2928932 C7.31658249,10.9023689 6.68341751,10.9023689 6.29289322,11.2928932 C5.93240926,11.6533772 5.90467972,12.2206082 6.20970461,12.6128994 L6.29289322,12.7071068 L9.29289322,15.7071068 L9.34743396,15.757792 L9.34743396,15.757792 L9.359,15.767 L9.37455101,15.7803112 L9.378,15.783 L9.38324992,15.787214 L9.38,15.784 L9.40469339,15.8036654 L9.40469339,15.8036654 C9.42886931,15.8215099 9.45372505,15.8382813 9.47933981,15.8539326 L9.5159379,15.8753288 L9.5159379,15.8753288 C9.53570605,15.8862061 9.5561086,15.8966234 9.57690085,15.9063462 L9.62866398,15.9287745 L9.62866398,15.9287745 C9.6484208,15.9366843 9.66820232,15.9438775 9.68826359,15.9504533 C9.70314866,15.9552713 9.71853672,15.9599023 9.73400703,15.9641549 C9.75556352,15.9701664 9.77725392,15.9753602 9.7992059,15.9798348 C9.81662474,15.9832978 9.83405099,15.9863719 9.85153313,15.9889822 L9.90996805,15.996002 L9.90996805,15.996002 C9.92081308,15.99693 9.93088722,15.9976744 9.94096861,15.9982669 L9.98082404,15.9998198 C9.9872016,15.9999398 9.99359377,16 10,16 L10.019,15.999 L10.045,15.998 L10.08,15.996 L10.1489612,15.9889807 L10.1489612,15.9889807 C10.165949,15.9863719 10.1833753,15.9832978 10.2007258,15.9797599 C10.2227461,15.9753602 10.2444365,15.9701664 10.2658396,15.964279 C10.2814633,15.9599023 10.2968513,15.9552713 10.3121425,15.9502619 C10.3317977,15.9438775 10.3515792,15.9366843 10.3710585,15.928896 L10.4232215,15.9063266 L10.4232215,15.9063266 C10.4438914,15.8966234 10.4642939,15.8862061 10.484277,15.8751242 C10.4963944,15.8685012 10.5086131,15.8613931 10.5207088,15.8540045 C10.546275,15.8382813 10.5711307,15.8215099 10.5951593,15.8036865 C10.6012086,15.7992821 10.6070733,15.7948255 10.6128994,15.7902954 C10.6196628,15.7849289 10.6225624,15.7826279 10.625449,15.7803112 L10.7071068,15.7071068 L13.7071068,12.7071068 C14.0976311,12.3165825 14.0976311,11.6834175 13.7071068,11.2928932 C13.3466228,10.9324093 12.7793918,10.9046797 12.3871006,11.2097046 L12.2928932,11.2928932 L11,12.585 L11,9 C11,8.44771525 10.5522847,8 10,8 Z"/>
</svg>

<svg xmlns="http://www.w3.org/2000/svg" viewBox="0 0 24 24">
  <path d="M15.1 4a2 2 0 0 1 1.5.68l5.25 6a2 2 0 0 1 0 2.64l-5.25 6a2 2 0 0 1-1.5.68H4a2 2 0 0 1-2-2V6c0-1.1.9-2 2-2h11.1zM10 8a1 1 0 0 0-1 .88v3.71l-1.3-1.3a1 1 0 0 0-1.49 1.32l.08.1 3 3 .06.05.02.02h.01l.02.02.08.05.04.03.06.03.05.02a.99.99 0 0 0 .22.06h.09l.04.01h.1l.07-.01a1.08 1.08 0 0 0 .22-.06l.05-.02a1.02 1.02 0 0 0 .2-.13l.09-.07 3-3a1 1 0 0 0-1.32-1.5l-.1.08L11 12.6V9a1 1 0 0 0-1-1z"/>
</svg>
